!!!SOCIAL_FUNCTION:	songs used in the treatment of the sick
!!!PDT:	1929
!!!OTL: No_75_They_Come_Hooting.krn
!!!REG: Southwest
!!!LANG: Non-Tone
!!!LING_GROUP: Uto-Aztecan
**kern
*staff1
=1-
*clefF4
*k[b-e-]
*M2/4
8.F\L
16d\Jk
8.d\L
16B-\Jk
=2
8.c\L
16c\Jk
8.c\L
16c\Jk
=3
(8.B-\L
16F\Jk)
(8F\L
16c\L)
16c\JJ
=4
(8.B-\L
16F\Jk)
(12G\L
12F\)
12F\J
=5
8.F\L
16F\Jk
8.F\L
16D\Jk
=6
8F\L
16F\L
16F\JJ
4F\
=7!|:
4B-\
20c\LL
20c\
20c\
20c\
20c\JJ
=8
12B-\L
12F\
12F\J
12G\L
12F\
12F\J
=9||
*M3/4
8.F\L
16F\Jk
12F\L
12F\
12F\J
8F\
8r
=10||
*M2/4
12G\L
12F\
12F\J
8.F\L
16D\Jk
=11
8.F\L
16F\Jk
8.F\L
16D\Jk
=12
8F\L
16F\L
16F\JJ
4F\
==:|!
*-
